www/src/img/icons/park.svg

<svg height="512pt" viewBox="0 0 512 512" width="512pt" xmlns="http://www.w3.org/2000/svg"><path d="m331 376h30v121h-30zm0 0" fill="#725d57"/><path d="m451 376h30v121h-30zm0 0" fill="#53433f"/><path d="m376 91c-24.902344 0-45 20.097656-45 45 0 24.898438 20.097656 45 45 45s45-20.101562 45-45c0-24.902344-20.097656-45-45-45zm0 0" fill="#ffd400"/><path d="m421 136c0 24.898438-20.097656 45-45 45v-90c24.902344 0 45 20.097656 45 45zm0 0" fill="#fdbf00"/><path d="m271 391h-271l136-391zm0 0" fill="#90e36a"/><path d="m361 211h30v60h-30zm0 0" fill="#ffd400"/><path d="m361 0h30v61h-30zm0 0" fill="#ffd400"/><path d="m451 121h61v30h-61zm0 0" fill="#fdbf00"/><path d="m241 121h60v30h-60zm0 0" fill="#ffd400"/><path d="m460.855469 29.925781 21.210937 21.210938-42.4375 42.4375-21.210937-21.210938zm0 0" fill="#fdbf00"/><path d="m312.367188 178.417969 21.210937 21.210937-42.4375 42.4375-21.210937-21.210937zm0 0" fill="#ffd400"/><path d="m291.140625 29.929688 42.433594 42.433593-21.210938 21.210938-42.433593-42.433594zm0 0" fill="#ffd400"/><path d="m439.632812 178.417969 42.433594 42.433593-21.210937 21.210938-42.433594-42.433594zm0 0" fill="#fdbf00"/><path d="m271 391h-135v-391zm0 0" fill="#56c225"/><path d="m206.5 281.5-55.5 55.800781v159.699219h-30v-159.699219l-55.5-55.800781 21-21 34.5 34.199219v-113.699219h30v113.699219l34.5-34.199219zm0 0" fill="#725d57"/><path d="m206.5 281.5-55.5 55.800781v159.699219h-15v-316h15v113.699219l34.5-34.199219zm0 0" fill="#53433f"/><path d="m376 0h15v61h-15zm0 0" fill="#fdbf00"/><path d="m376 211h15v60h-15zm0 0" fill="#fdbf00"/><path d="m0 482h512v30h-512zm0 0" fill="#90e36a"/><path d="m406 482h106v30h-106zm0 0" fill="#56c225"/><path d="m301 421h211v31h-211zm0 0" fill="#b35f49"/><path d="m301 361h211v30h-211zm0 0" fill="#b35f49"/><g fill="#99503d"><path d="m406 361h106v30h-106zm0 0"/><path d="m406 421h106v31h-106zm0 0"/></g></svg>

<svg width="512pt" height="512pt" viewBox="0 0 512 512" xmlns="http://www.w3.org/2000/svg"><path d="M331 376h30v121h-30z" fill="#725d57"/><path d="M451 376h30v121h-30z" fill="#53433f"/><path d="M376 91c-24.9 0-45 20.1-45 45s20.1 45 45 45 45-20.1 45-45-20.1-45-45-45z" fill="#ffd400"/><path d="M421 136c0 24.9-20.1 45-45 45V91c24.9 0 45 20.1 45 45z" fill="#fdbf00"/><path d="M271 391H0L136 0z" fill="#90e36a"/><path d="M361 211h30v60h-30zM361 0h30v61h-30z" fill="#ffd400"/><path d="M451 121h61v30h-61z" fill="#fdbf00"/><path d="M241 121h60v30h-60z" fill="#ffd400"/><path d="M460.86 29.93l21.21 21.2-42.44 42.45-21.2-21.22z" fill="#fdbf00"/><path d="M312.37 178.42l21.21 21.21-42.44 42.44-21.2-21.21zM291.14 29.93l42.43 42.43-21.2 21.22-42.44-42.44z" fill="#ffd400"/><path d="M439.63 178.42l42.43 42.43-21.2 21.21-42.44-42.43z" fill="#fdbf00"/><path d="M271 391H136V0z" fill="#56c225"/><path d="M206.5 281.5L151 337.3V497h-30V337.3l-55.5-55.8 21-21 34.5 34.2V181h30v113.7l34.5-34.2z" fill="#725d57"/><path d="M206.5 281.5L151 337.3V497h-15V181h15v113.7l34.5-34.2z" fill="#53433f"/><path d="M376 0h15v61h-15zM376 211h15v60h-15z" fill="#fdbf00"/><path d="M0 482h512v30H0z" fill="#90e36a"/><path d="M406 482h106v30H406z" fill="#56c225"/><path d="M301 421h211v31H301zM301 361h211v30H301z" fill="#b35f49"/><g fill="#99503d"><path d="M406 361h106v30H406zM406 421h106v31H406z"/></g></svg>
